X:270
T:Psalm 80th TS.270
M:3/2
L:1/2
Q:1/2=120
S:Thomas Sands’ MS,1810,Lincolnshire
R:air
C:’Composed by the Revd G. Oliver’
O:England;Lincolnshire
Z:vmp.Ruairidh Greig, 2011
K:A
[V:1]E|E2G|G2A|GAG|F2B|A2B|(Be)d|
[V:2]e/c/|B2d|e2e|(ed)e|d2d|efg|(fe)f|
[V:3]E|G2B|e2c|BAG|F2B|cde|dcB|
w:O Is-rael’s shep-herd Jo–seph’s guide Our pray-ers to th-ee vouch
[V:4]E,|E,2B,|G,2E,|G,F,E,|B,,2B,|A,F,E,|F,E,D,|
[V:1]edc|B2||”Two Trebles”B/A/|G/B/c/B/A/G/|F/c/B/A/G/F/|
w:____Th-ou that dost on the cher-ubs on th-e cher–ubs
[V:2]g2^a|b2||G/F/|E/G/A/G/F/E/|D/A/G/F/E/D/|
w:___Th-ou that &c
[V:3]cB^A|B2||z|z3|z3|
w:sa-fe to hear
[V:4]E,F,F,,|B,,2||z|z3|z2E,/F,/|
[V:1]Gzz|zzE|G2B|e2g/f/|e3|d3|e3:|
w:ride
[V:2]Ezz|zzg|c’2f|e2e/f/|g3|f3|g3:|
[V:3]z3|zzB|e2d|ecB/A/|G3|F3|G3:|]
w:Ag-ain in sol—emn state ap-pear
[V:4]G,/A,/B,/C/D/B,/|E2E,|E,2F,|G,A,G,/A,/|B,3|B,,3|E,3:|]
w:that dost on the cher-ubs ride

